material/.icons/material/arrow-right-bold-circle.svg

<svg xmlns="http://www.w3.org/2000/svg" viewBox="0 0 24 24"><path d="M2 12A10 10 0 0112 2a10 10 0 0110 10 10 10 0 01-10 10A10 10 0 012 12m15 0l-5-5v3H8v4h4v3l5-5z"/></svg>

<?xml version="1.0" encoding="UTF-8"?><!DOCTYPE svg PUBLIC "-//W3C//DTD SVG 1.1//EN" "http://www.w3.org/Graphics/SVG/1.1/DTD/svg11.dtd"><svg xmlns="http://www.w3.org/2000/svg" xmlns:xlink="http://www.w3.org/1999/xlink" version="1.1" id="mdi-arrow-right-bold-circle" width="24" height="24" viewBox="0 0 24 24"><path d="M2,12A10,10 0 0,1 12,2A10,10 0 0,1 22,12A10,10 0 0,1 12,22A10,10 0 0,1 2,12M17,12L12,7V10H8V14H12V17L17,12Z" /></svg>
